build/img/logo-premium.svg

<svg width="122" height="30" viewBox="0 0 122 30" fill="none" xmlns="http://www.w3.org/2000/svg">
<rect width="122" height="30" rx="10" fill="#684677"/>
<path d="M17.608 9.784C19.2613 9.784 20.5307 10.0773 21.416 10.664C22.3013 11.24 22.744 12.1893 22.744 13.512C22.744 14.8453 22.296 15.8107 21.4 16.408C20.504 16.9947 19.224 17.288 17.56 17.288H16.776V21H14.28V10.072C14.824 9.96533 15.4 9.89067 16.008 9.848C16.616 9.80533 17.1493 9.784 17.608 9.784ZM17.768 11.912C17.5867 11.912 17.4053 11.9173 17.224 11.928C17.0533 11.9387 16.904 11.9493 16.776 11.96V15.16H17.56C18.424 15.16 19.0747 15.0427 19.512 14.808C19.9493 14.5733 20.168 14.136 20.168 13.496C20.168 13.1867 20.1093 12.9307 19.992 12.728C19.8853 12.5253 19.7253 12.3653 19.512 12.248C19.3093 12.12 19.0587 12.0347 18.76 11.992C18.4613 11.9387 18.1307 11.912 17.768 11.912ZM29.4889 14.696C29.2755 14.6427 29.0249 14.5893 28.7369 14.536C28.4489 14.472 28.1395 14.44 27.8089 14.44C27.6595 14.44 27.4782 14.456 27.2649 14.488C27.0622 14.5093 26.9075 14.536 26.8009 14.568V21H24.4169V13.032C24.8435 12.8827 25.3449 12.744 25.9209 12.616C26.5075 12.4773 27.1582 12.408 27.8729 12.408C28.0009 12.408 28.1555 12.4187 28.3369 12.44C28.5182 12.4507 28.6995 12.472 28.8809 12.504C29.0622 12.5253 29.2435 12.5573 29.4249 12.6C29.6062 12.632 29.7609 12.6747 29.8889 12.728L29.4889 14.696ZM30.6106 16.856C30.6106 16.1093 30.7226 15.4587 30.9466 14.904C31.1813 14.3387 31.4853 13.8693 31.8586 13.496C32.232 13.1227 32.6586 12.84 33.1386 12.648C33.6293 12.456 34.1306 12.36 34.6426 12.36C35.8373 12.36 36.7813 12.728 37.4746 13.464C38.168 14.1893 38.5146 15.2613 38.5146 16.68C38.5146 16.8187 38.5093 16.9733 38.4986 17.144C38.488 17.304 38.4773 17.448 38.4666 17.576H33.0586C33.112 18.0667 33.3413 18.456 33.7466 18.744C34.152 19.032 34.696 19.176 35.3786 19.176C35.816 19.176 36.2426 19.1387 36.6586 19.064C37.0853 18.9787 37.432 18.8773 37.6986 18.76L38.0186 20.696C37.8906 20.76 37.72 20.824 37.5066 20.888C37.2933 20.952 37.0533 21.0053 36.7866 21.048C36.5306 21.1013 36.2533 21.144 35.9546 21.176C35.656 21.208 35.3573 21.224 35.0586 21.224C34.3013 21.224 33.64 21.112 33.0746 20.888C32.52 20.664 32.056 20.36 31.6826 19.976C31.32 19.5813 31.048 19.1173 30.8666 18.584C30.696 18.0507 30.6106 17.4747 30.6106 16.856ZM36.2106 15.944C36.2 15.7413 36.1626 15.544 36.0986 15.352C36.0453 15.16 35.9546 14.9893 35.8266 14.84C35.7093 14.6907 35.5546 14.568 35.3626 14.472C35.1813 14.376 34.952 14.328 34.6746 14.328C34.408 14.328 34.1786 14.376 33.9866 14.472C33.7946 14.5573 33.6346 14.6747 33.5066 14.824C33.3786 14.9733 33.2773 15.1493 33.2026 15.352C33.1386 15.544 33.0906 15.7413 33.0586 15.944H36.2106ZM44.9784 16.536C44.9784 15.768 44.877 15.224 44.6744 14.904C44.4824 14.584 44.1464 14.424 43.6664 14.424C43.517 14.424 43.3624 14.4347 43.2024 14.456C43.0424 14.4667 42.8877 14.4827 42.7384 14.504V21H40.3544V12.872C40.557 12.8187 40.7917 12.7653 41.0584 12.712C41.3357 12.648 41.6237 12.5947 41.9224 12.552C42.2317 12.4987 42.5464 12.4613 42.8664 12.44C43.1864 12.408 43.501 12.392 43.8104 12.392C44.4184 12.392 44.909 12.472 45.2824 12.632C45.6664 12.7813 45.981 12.9627 46.2264 13.176C46.5677 12.9307 46.957 12.7387 47.3944 12.6C47.8424 12.4613 48.253 12.392 48.6264 12.392C49.2984 12.392 49.8477 12.488 50.2744 12.68C50.7117 12.8613 51.0584 13.1227 51.3144 13.464C51.5704 13.8053 51.7464 14.2107 51.8424 14.68C51.9384 15.1493 51.9864 15.672 51.9864 16.248V21H49.6024V16.536C49.6024 15.768 49.501 15.224 49.2984 14.904C49.1064 14.584 48.7704 14.424 48.2904 14.424C48.1624 14.424 47.981 14.456 47.7464 14.52C47.5224 14.584 47.3357 14.664 47.1864 14.76C47.261 15.0053 47.309 15.2667 47.3304 15.544C47.3517 15.8107 47.3624 16.0987 47.3624 16.408V21H44.9784V16.536ZM56.5353 21H54.1513V12.584H56.5353V21ZM56.7593 10.152C56.7593 10.5893 56.6153 10.936 56.3273 11.192C56.0499 11.4373 55.7193 11.56 55.3353 11.56C54.9513 11.56 54.6153 11.4373 54.3273 11.192C54.0499 10.936 53.9113 10.5893 53.9113 10.152C53.9113 9.71467 54.0499 9.37333 54.3273 9.128C54.6153 8.872 54.9513 8.744 55.3353 8.744C55.7193 8.744 56.0499 8.872 56.3273 9.128C56.6153 9.37333 56.7593 9.71467 56.7593 10.152ZM65.9603 20.712C65.5549 20.8293 65.0323 20.936 64.3923 21.032C63.7523 21.1387 63.0803 21.192 62.3763 21.192C61.6616 21.192 61.0643 21.096 60.5843 20.904C60.1149 20.712 59.7416 20.4453 59.4643 20.104C59.1869 19.752 58.9896 19.336 58.8723 18.856C58.7549 18.376 58.6963 17.848 58.6963 17.272V12.584H61.0803V16.984C61.0803 17.752 61.1816 18.3067 61.3843 18.648C61.5869 18.9893 61.9656 19.16 62.5203 19.16C62.6909 19.16 62.8723 19.1547 63.0643 19.144C63.2563 19.1227 63.4269 19.1013 63.5763 19.08V12.584H65.9603V20.712ZM72.8221 16.536C72.8221 15.768 72.7208 15.224 72.5181 14.904C72.3261 14.584 71.9901 14.424 71.5101 14.424C71.3608 14.424 71.2061 14.4347 71.0461 14.456C70.8861 14.4667 70.7315 14.4827 70.5821 14.504V21H68.1981V12.872C68.4008 12.8187 68.6355 12.7653 68.9021 12.712C69.1795 12.648 69.4675 12.5947 69.7661 12.552C70.0755 12.4987 70.3901 12.4613 70.7101 12.44C71.0301 12.408 71.3448 12.392 71.6541 12.392C72.2621 12.392 72.7528 12.472 73.1261 12.632C73.5101 12.7813 73.8248 12.9627 74.0701 13.176C74.4115 12.9307 74.8008 12.7387 75.2381 12.6C75.6861 12.4613 76.0968 12.392 76.4701 12.392C77.1421 12.392 77.6915 12.488 78.1181 12.68C78.5555 12.8613 78.9021 13.1227 79.1581 13.464C79.4141 13.8053 79.5901 14.2107 79.6861 14.68C79.7821 15.1493 79.8301 15.672 79.8301 16.248V21H77.4461V16.536C77.4461 15.768 77.3448 15.224 77.1421 14.904C76.9501 14.584 76.6141 14.424 76.1341 14.424C76.0061 14.424 75.8248 14.456 75.5901 14.52C75.3661 14.584 75.1795 14.664 75.0301 14.76C75.1048 15.0053 75.1528 15.2667 75.1741 15.544C75.1955 15.8107 75.2061 16.0987 75.2061 16.408V21H72.8221V16.536Z" fill="#FFCF2D"/>
<path d="M100 7.5H105L109 12.5M100 7.5L103 12.5M100 7.5H95L91 12.5M100 7.5L97 12.5M109 12.5L100 22.5M109 12.5H103M100 22.5L103 12.5M100 22.5L91 12.5M100 22.5L97 12.5M103 12.5H97M91 12.5H97" stroke="#FFCF2D" stroke-width="1.5"/>
</svg>

<svg width="122" height="30" fill="none" xmlns="http://www.w3.org/2000/svg"><rect width="122" height="30" rx="10" fill="#684677"/><path d="M17.608 9.784c1.653 0 2.923.293 3.808.88.885.576 1.328 1.525 1.328 2.848 0 1.333-.448 2.299-1.344 2.896-.896.587-2.176.88-3.84.88h-.784V21H14.28V10.072c.544-.107 1.12-.181 1.728-.224a23.2 23.2 0 0 1 1.6-.064Zm.16 2.128c-.181 0-.363.005-.544.016-.17.01-.32.021-.448.032v3.2h.784c.864 0 1.515-.117 1.952-.352.437-.235.656-.672.656-1.312 0-.31-.059-.565-.176-.768a1.157 1.157 0 0 0-.48-.48 1.898 1.898 0 0 0-.752-.256 5.665 5.665 0 0 0-.992-.08Zm11.72 2.784a12.63 12.63 0 0 0-.751-.16 4.273 4.273 0 0 0-.928-.096c-.15 0-.33.016-.544.048a2.695 2.695 0 0 0-.464.08V21h-2.384v-7.968a13.4 13.4 0 0 1 1.504-.416 8.492 8.492 0 0 1 1.952-.208c.128 0 .282.01.464.032.181.01.363.032.544.064.181.021.363.053.544.096.181.032.336.075.464.128l-.4 1.968Zm1.123 2.16c0-.747.112-1.397.336-1.952.234-.565.538-1.035.912-1.408.373-.373.8-.656 1.28-.848.49-.192.992-.288 1.504-.288 1.194 0 2.138.368 2.832 1.104.693.725 1.04 1.797 1.04 3.216 0 .139-.006.293-.016.464l-.032.432h-5.408c.053.49.282.88.688 1.168.405.288.949.432 1.632.432.437 0 .864-.037 1.28-.112a5.137 5.137 0 0 0 1.04-.304l.32 1.936a3.29 3.29 0 0 1-.512.192 5.594 5.594 0 0 1-.72.16 8.57 8.57 0 0 1-1.728.176c-.758 0-1.419-.112-1.984-.336a4 4 0 0 1-1.392-.912 3.875 3.875 0 0 1-.816-1.392 5.642 5.642 0 0 1-.256-1.728Zm5.6-.912c-.011-.203-.048-.4-.112-.592a1.319 1.319 0 0 0-.272-.512 1.341 1.341 0 0 0-.464-.368c-.182-.096-.411-.144-.688-.144-.267 0-.496.048-.688.144a1.337 1.337 0 0 0-.48.352c-.128.15-.23.325-.304.528-.064.192-.112.39-.144.592h3.152Zm8.767.592c0-.768-.101-1.312-.304-1.632-.192-.32-.528-.48-1.008-.48-.149 0-.304.01-.464.032a6.23 6.23 0 0 0-.464.048V21h-2.384v-8.128c.203-.053.438-.107.704-.16.278-.064.566-.117.864-.16.31-.053.624-.09.944-.112.32-.032.635-.048.944-.048.608 0 1.099.08 1.472.24.384.15.699.33.944.544.342-.245.731-.437 1.168-.576a4.194 4.194 0 0 1 1.232-.208c.672 0 1.222.096 1.648.288a2.43 2.43 0 0 1 1.04.784c.256.341.432.747.528 1.216.096.47.144.992.144 1.568V21h-2.384v-4.464c0-.768-.101-1.312-.304-1.632-.192-.32-.528-.48-1.008-.48-.128 0-.309.032-.544.096-.224.064-.41.144-.56.24.075.245.123.507.144.784.022.267.032.555.032.864V21h-2.384v-4.464ZM56.535 21h-2.384v-8.416h2.384V21Zm.224-10.848c0 .437-.144.784-.432 1.04a1.447 1.447 0 0 1-.992.368c-.384 0-.72-.123-1.008-.368-.277-.256-.416-.603-.416-1.04 0-.437.139-.779.416-1.024a1.47 1.47 0 0 1 1.008-.384c.384 0 .715.128.992.384.288.245.432.587.432 1.024Zm9.201 10.56c-.405.117-.928.224-1.568.32-.64.107-1.312.16-2.016.16-.714 0-1.312-.096-1.792-.288-.47-.192-.842-.459-1.12-.8a3.223 3.223 0 0 1-.592-1.248 6.666 6.666 0 0 1-.176-1.584v-4.688h2.384v4.4c0 .768.102 1.323.304 1.664.203.341.582.512 1.136.512.17 0 .352-.005.544-.016.192-.021.363-.043.512-.064v-6.496h2.384v8.128Zm6.862-4.176c0-.768-.101-1.312-.304-1.632-.192-.32-.528-.48-1.008-.48-.15 0-.304.01-.464.032-.16.01-.315.027-.464.048V21h-2.384v-8.128c.203-.053.438-.107.704-.16.278-.064.566-.117.864-.16.31-.053.624-.09.944-.112.32-.032.635-.048.944-.048.608 0 1.099.08 1.472.24.384.15.699.33.944.544a4.12 4.12 0 0 1 1.168-.576 4.195 4.195 0 0 1 1.232-.208c.672 0 1.222.096 1.648.288.438.181.784.443 1.04.784s.432.747.528 1.216c.096.47.144.992.144 1.568V21h-2.384v-4.464c0-.768-.101-1.312-.304-1.632-.192-.32-.528-.48-1.008-.48-.128 0-.31.032-.544.096-.224.064-.41.144-.56.24.075.245.123.507.144.784.021.267.032.555.032.864V21h-2.384v-4.464Z" fill="#FFCF2D"/><path d="M100 7.5h5l4 5m-9-5 3 5m-3-5h-5l-4 5m9-5-3 5m12 0-9 10m9-10h-6m-3 10 3-10m-3 10-9-10m9 10-3-10m6 0h-6m-6 0h6" stroke="#FFCF2D" stroke-width="1.5"/></svg>
